src/images/icon/icon_btn_elected_edit.svg

<svg height="20" viewBox="0 0 20 20" width="20" xmlns="http://www.w3.org/2000/svg"><g fill="none" fill-rule="evenodd"><path d="m17.8571429 7.85714286v7.14285714c0 1.5779564-1.2791865 2.8571429-2.8571429 2.8571429h-10c-1.57795643 0-2.85714286-1.2791865-2.85714286-2.8571429v-10c0-1.57795643 1.27918643-2.85714286 2.85714286-2.85714286h6.4285714" stroke="#1ee7e7" stroke-width="1.5"/><path d="m17.4696699 1.46966991 1.0606602 1.06066018-9.4103301 9.40933981-2.12 1.0603301 1.06-2.1203301z" fill="#0080ff" fill-rule="nonzero"/></g></svg>

<?xml version="1.0" encoding="UTF-8"?>
<svg width="20px" height="20px" viewBox="0 0 20 20" version="1.1" xmlns="http://www.w3.org/2000/svg" xmlns:xlink="http://www.w3.org/1999/xlink">
    
    <g id="Dashboard" stroke="none" stroke-width="1" fill="none" fill-rule="evenodd">
        <g id="00-Menu-交互备份" transform="translate(-299.000000, -425.000000)">
            <g id="编组-19" transform="translate(297.000000, 423.000000)">
                <g id="编组-8" transform="translate(2.000000, 2.000000)">
                    <path d="M17.8571429,7.85714286 L17.8571429,7.85714286 L17.8571429,15 C17.8571429,16.5779564 16.5779564,17.8571429 15,17.8571429 L5,17.8571429 C3.42204357,17.8571429 2.14285714,16.5779564 2.14285714,15 L2.14285714,5 C2.14285714,3.42204357 3.42204357,2.14285714 5,2.14285714 L11.4285714,2.14285714 L11.4285714,2.14285714" id="路径" stroke="#1EE7E7" stroke-width="1.5"></path>
                    <path d="M17.4696699,1.46966991 L18.5303301,2.53033009 L9.12,11.9396699 L7,13 L8.06,10.8796699 L17.4696699,1.46966991 Z" id="形状结合" fill="#0080FF" fill-rule="nonzero"></path>
                </g>
            </g>
        </g>
    </g>
</svg>
